X:60
T:Reel de Ch\^ateauguay
C:Joseph Allard
M:4/4
L:1/8
K:G
dg |: b2bg a2af | gfgb d3g | fdAB c3e | dBGA B2dg |
b2bg a2af | gfgb d3g | fdAB cdef |1 g2b2 g2dg :|2 g2b2 gfgB |:
G3B d2gf | efge d3g | fdAB cBce | dBGA B2BA |
G2GB d2gf | efge d3g | fdAB cdef | g2b2 g2BA :|

